public/icon/search.svg

<svg width="20" height="20" viewBox="0 0 20 20" fill="none" xmlns="http://www.w3.org/2000/svg">
<path d="M7.85714 0C3.525 0 0 3.525 0 7.85714C0 12.1893 3.525 15.7143 7.85714 15.7143C12.1893 15.7143 15.7143 12.1893 15.7143 7.85714C15.7143 3.525 12.1893 0 7.85714 0ZM7.85714 14.2857C4.31286 14.2857 1.42857 11.4021 1.42857 7.85714C1.42857 4.31286 4.31286 1.42857 7.85714 1.42857C11.4021 1.42857 14.2857 4.31286 14.2857 7.85714C14.2857 11.4021 11.4021 14.2857 7.85714 14.2857Z" fill="url(#paint0_linear_206_961)"/>
<path d="M19.7906 18.7807L15.5041 14.495C15.2248 14.2157 14.7734 14.2157 14.4941 14.495C14.2148 14.7743 14.2148 15.2257 14.4941 15.505L18.7806 19.7907C18.9198 19.93 19.1027 20 19.2856 20C19.4684 20 19.6513 19.93 19.7906 19.7907C20.0698 19.5114 20.0698 19.06 19.7906 18.7807Z" fill="url(#paint1_linear_206_961)"/>
<defs>
<linearGradient id="paint0_linear_206_961" x1="0" y1="7.85714" x2="15.7143" y2="7.85714" gradientUnits="userSpaceOnUse">
<stop stop-color="#3068D0"/>
<stop offset="0.5" stop-color="#836BAF"/>
<stop offset="1" stop-color="#978262"/>
</linearGradient>
<linearGradient id="paint1_linear_206_961" x1="14.2847" y1="17.1428" x2="20" y2="17.1428" gradientUnits="userSpaceOnUse">
<stop stop-color="#3068D0"/>
<stop offset="0.5" stop-color="#836BAF"/>
<stop offset="1" stop-color="#978262"/>
</linearGradient>
</defs>
</svg>

<svg width="20" height="20" fill="none" xmlns="http://www.w3.org/2000/svg"><path d="M7.857 0C3.525 0 0 3.525 0 7.857c0 4.332 3.525 7.857 7.857 7.857 4.332 0 7.857-3.525 7.857-7.857C15.714 3.525 12.19 0 7.857 0Zm0 14.286A6.436 6.436 0 0 1 1.43 7.857 6.436 6.436 0 0 1 7.857 1.43a6.436 6.436 0 0 1 6.429 6.428 6.436 6.436 0 0 1-6.429 6.429Z" fill="url(#a)"/><path d="m19.79 18.78-4.286-4.285a.713.713 0 1 0-1.01 1.01l4.287 4.286a.712.712 0 0 0 1.01 0c.279-.28.279-.731 0-1.01Z" fill="url(#b)"/><defs><linearGradient id="a" x1="0" y1="7.857" x2="15.714" y2="7.857" gradientUnits="userSpaceOnUse"><stop stop-color="#3068D0"/><stop offset=".5" stop-color="#836BAF"/><stop offset="1" stop-color="#978262"/></linearGradient><linearGradient id="b" x1="14.285" y1="17.143" x2="20" y2="17.143" gradientUnits="userSpaceOnUse"><stop stop-color="#3068D0"/><stop offset=".5" stop-color="#836BAF"/><stop offset="1" stop-color="#978262"/></linearGradient></defs></svg>
